icons/op-phase-16.svg

<svg width="16" height="16" viewBox="0 0 16 16" fill="none" xmlns="http://www.w3.org/2000/svg">
<path fill-rule="evenodd" clip-rule="evenodd" d="M9.41415 4C9.8299 4 10.2316 4.168 10.5489 4.47314L12.6277 6.47314C12.8227 6.66089 12.9794 6.89475 13.0868 7.15845C13.0991 7.18867 13.1108 7.21919 13.1217 7.25H14.75C15.1642 7.25 15.5 7.58579 15.5 8C15.5 8.41421 15.1642 8.75 14.75 8.75H13.1217C13.1108 8.78081 13.0991 8.81134 13.0868 8.84155C12.9794 9.10525 12.8227 9.33911 12.6277 9.52686L10.5489 11.5269C10.2317 11.8323 9.8297 11.9999 9.41415 12H4.0074C3.54131 12 3.0943 11.7893 2.76473 11.4142C2.43515 11.0391 2.25 10.5304 2.25 10V8.75H0.75C0.335786 8.75 0 8.41421 0 8C0 7.58579 0.335786 7.25 0.75 7.25H2.25V6C2.25 4.896 3.03731 4 4.0074 4H9.41415ZM9.41415 10.2857H4.0074C3.86881 10.2857 3.75634 10.1577 3.75634 10V6C3.75634 5.92423 3.78279 5.85155 3.82987 5.79797C3.87696 5.74439 3.94082 5.71429 4.0074 5.71429H9.41415C9.4735 5.71469 9.53075 5.73898 9.57584 5.78286L11.6546 7.78286C11.6821 7.80968 11.7043 7.84298 11.7195 7.88047C11.7346 7.91795 11.7425 7.95873 11.7425 8C11.7425 8.04127 11.7346 8.08205 11.7195 8.11953C11.7043 8.15702 11.6821 8.19032 11.6546 8.21714L9.57584 10.2171C9.53075 10.261 9.4735 10.2853 9.41415 10.2857Z" fill="#000000"/>
</svg>

<svg xmlns="http://www.w3.org/2000/svg" width="16" height="16" viewBox="0 0 16 16"><path d="M9.414 4c.416 0 .818.168 1.135.473l2.079 2c.195.188.351.422.459.685l.035.092h1.628a.75.75 0 0 1 0 1.5h-1.628l-.035.092a2.009 2.009 0 0 1-.459.685l-2.079 2A1.636 1.636 0 0 1 9.414 12H4.007c-.466 0-.913-.211-1.242-.586A2.146 2.146 0 0 1 2.25 10V8.75H.75a.75.75 0 0 1 0-1.5h1.5V6c0-1.104.787-2 1.757-2Zm0 6.286a.236.236 0 0 0 .162-.069l2.079-2a.31.31 0 0 0 0-.434l-2.079-2a.236.236 0 0 0-.162-.069H4.007c-.066 0-.13.03-.177.084A.308.308 0 0 0 3.756 6v4c0 .158.113.286.251.286Z"/></svg>
